<?xml version="1.0" encoding="UTF-8"?>
<map version="1.10" tiledversion="1.12.2" orientation="orthogonal" renderorder="right-down" width="50" height="30" tilewidth="16" tileheight="16" infinite="0" nextlayerid="19" nextobjectid="1">
 <tileset firstgid="1" source="Tile.tsx"/>
 <layer id="8" name="Earth" width="50" height="30">
  <data encoding="csv">
357,357,357,357,357,357,357,357,357,357,357,357,357,357,357,357,357,357,357,357,357,357,357,357,357,357,357,357,357,357,357,357,357,357,357,357,357,357,357,357,357,357,357,357,357,357,357,357,357,357,
357,536871270,357,357,335,335,357,357,357,357,357,357,357,357,357,357,357,357,357,357,357,357,357,357,357,357,357,357,357,357,357,357,357,357,357,357,357,357,357,357,357,357,357,357,357,357,357,357,357,357,
357,536871269,357,357,357,357,335,357,357,357,357,357,357,357,357,357,357,357,357,357,357,357,357,357,357,357,357,357,357,357,357,357,357,357,357,357,357,357,357,357,357,357,357,357,357,357,357,357,357,357,
357,536871247,357,357,357,357,335,358,357,357,357,357,357,357,357,357,357,357,357,357,357,357,357,357,357,357,357,357,357,357,357,357,357,357,357,357,357,357,357,357,357,357,357,357,357,357,357,357,357,357,
357,357,536871247,357,335,335,336,357,357,357,357,357,357,357,357,357,357,357,357,357,357,357,357,357,357,357,357,357,357,357,357,357,357,357,357,357,357,357,357,357,357,357,357,357,357,357,357,357,357,357,
357,357,357,357,357,357,357,357,357,357,357,357,357,357,357,357,357,357,357,357,357,357,357,357,357,357,357,357,357,357,357,357,357,357,357,357,357,357,357,357,357,357,357,357,357,357,357,357,357,357,
357,357,357,357,357,357,357,357,357,357,357,357,357,357,357,357,357,357,357,357,357,357,357,357,357,357,357,357,357,357,357,357,357,357,357,357,357,357,357,357,357,357,357,357,357,357,357,357,357,357,
357,357,357,357,357,357,357,357,357,357,357,357,357,357,357,357,357,357,357,357,357,357,357,357,357,357,357,357,357,357,357,357,357,357,357,357,357,357,357,357,357,357,357,357,357,357,357,357,357,357,
357,357,357,357,357,357,357,357,357,357,357,357,357,357,357,357,357,357,357,357,357,357,357,357,357,357,357,357,357,357,357,357,357,357,357,357,357,357,357,357,357,357,357,357,357,357,357,357,357,357,
357,357,357,357,357,357,357,357,357,357,357,357,357,357,357,357,357,357,357,357,357,357,357,357,357,357,357,357,357,357,357,357,357,357,357,357,357,357,357,357,357,357,357,357,357,357,357,357,357,357,
357,357,357,357,357,357,357,357,357,357,357,357,357,357,357,357,357,357,357,357,357,357,357,357,357,357,357,357,357,357,357,357,357,357,357,357,357,357,357,357,357,357,357,357,357,357,357,357,357,357,
357,357,357,357,357,357,357,357,357,357,357,357,73,357,357,357,357,357,357,357,357,357,357,357,357,357,357,357,357,357,357,357,357,357,357,357,357,357,357,357,357,357,357,357,357,357,357,357,357,357,
357,357,357,357,357,357,357,357,357,357,357,357,357,357,357,357,357,357,357,357,357,357,357,357,357,357,357,357,357,357,357,357,357,357,357,357,357,357,357,357,357,357,357,357,357,357,357,357,357,357,
357,357,357,357,357,357,357,357,357,357,357,357,357,357,357,357,357,357,357,357,357,357,357,357,357,357,357,357,357,357,357,357,357,357,357,357,357,357,357,357,357,357,357,357,357,357,357,357,357,357,
357,357,357,357,357,357,357,357,357,357,357,357,357,357,357,357,357,357,357,357,357,357,357,357,357,357,357,357,357,357,357,357,357,357,357,357,357,357,357,357,357,357,357,357,357,357,357,357,357,357,
357,357,357,357,357,357,357,357,357,357,357,357,357,357,357,357,357,357,357,357,357,357,357,357,357,357,357,357,357,357,357,357,357,357,357,357,357,357,357,357,357,357,357,357,357,357,357,357,357,357,
357,2147483984,2147483984,357,357,357,357,357,357,357,357,357,357,357,357,357,357,357,357,357,536871248,357,357,357,357,357,357,357,357,357,357,357,357,357,357,357,357,357,357,357,357,357,357,357,357,357,357,357,357,357,
357,2147483983,357,536871269,357,357,357,357,357,357,357,357,357,357,357,357,357,357,357,357,2147484005,2147483983,536871248,357,357,357,357,357,536871247,357,357,357,357,357,357,357,357,357,357,357,357,357,357,357,357,357,357,357,357,357,
357,357,357,357,357,357,357,357,357,357,357,357,357,357,357,357,357,357,357,357,357,357,357,357,357,357,357,357,536871270,536871247,357,357,357,357,357,357,357,357,357,357,357,357,357,357,357,357,357,357,357,357,
357,357,357,357,357,357,357,357,357,357,357,357,357,357,357,357,357,357,357,357,357,357,357,357,357,357,357,357,357,357,357,357,357,357,357,357,357,357,357,357,357,357,357,357,357,357,357,357,357,357,
357,357,357,357,357,357,357,357,357,357,357,357,357,357,357,357,357,357,357,357,357,357,357,357,357,357,357,357,357,357,357,357,357,357,357,357,357,357,357,357,357,357,357,357,357,357,357,357,357,357,
357,357,357,357,357,357,357,357,357,357,357,357,357,357,357,357,357,357,357,357,357,357,357,357,357,357,357,357,357,357,357,357,357,357,357,357,357,357,357,357,357,357,357,357,357,357,357,357,357,357,
357,357,357,357,357,357,357,357,357,357,357,357,357,357,357,357,357,357,357,357,357,357,357,357,357,357,357,357,357,357,357,357,357,357,357,357,357,357,357,357,357,357,357,357,357,357,357,357,357,357,
357,357,357,357,357,357,357,357,357,357,357,357,357,357,357,357,357,357,357,357,357,357,357,357,357,357,357,357,357,357,357,357,357,357,357,357,357,357,357,357,357,357,357,357,357,357,357,357,357,357,
2147484005,357,357,357,357,357,357,357,357,357,357,357,357,357,357,357,357,357,357,357,357,357,357,357,357,357,357,357,357,357,357,357,357,357,357,357,357,357,357,357,357,357,357,357,357,357,357,357,357,357,
2147483983,357,357,357,357,357,357,357,357,357,357,357,357,357,357,357,357,357,357,357,357,357,357,357,357,357,357,357,357,357,357,357,357,357,357,357,357,357,357,357,357,357,357,357,357,357,357,357,357,357,
2147483984,357,357,357,357,357,357,357,357,357,357,357,357,357,357,357,357,357,357,357,357,357,357,357,357,357,357,357,357,357,357,357,357,357,357,357,357,357,357,357,357,357,357,357,357,357,357,357,357,357,
2147484006,357,357,357,357,357,357,357,357,357,357,357,357,357,357,357,357,357,357,357,357,1073742182,357,357,2147483984,357,357,357,357,357,357,357,357,357,357,357,357,357,357,357,357,357,357,357,357,357,357,357,357,357,
357,357,357,357,357,357,357,357,357,357,357,357,357,357,357,357,357,357,357,357,357,357,336,357,357,357,335,357,357,357,357,357,357,357,357,357,357,357,357,357,357,357,357,357,357,357,357,357,357,357,
2147484006,2147483984,357,357,357,357,357,357,357,357,357,357,357,357,357,357,357,357,357,357,357,357,357,357,357,357,358,357,357,357,357,357,357,357,357,357,357,357,357,357,357,357,357,357,357,1073742160,357,357,357,357
</data>
 </layer>
 <layer id="12" name="Saidwalk" width="50" height="30">
  <data encoding="csv">
0,0,0,0,0,0,0,0,0,266,267,0,0,0,0,0,0,0,0,0,0,0,0,0,0,0,0,0,0,0,0,0,0,0,0,0,0,0,0,0,0,0,0,0,0,0,0,0,0,0,
0,0,0,0,0,0,0,0,0,0,0,0,0,0,0,0,0,0,0,0,0,0,0,0,0,0,0,107,108,0,0,0,0,0,0,0,0,0,0,0,0,0,0,0,0,107,108,0,0,0,
0,0,0,0,0,0,0,0,0,0,0,0,0,0,0,0,0,0,0,0,0,0,0,0,0,0,0,129,130,0,0,0,0,0,0,0,0,0,0,0,0,0,0,0,0,129,130,0,0,0,
0,0,0,0,0,0,0,0,0,0,0,0,0,0,0,0,0,0,0,0,0,0,0,0,0,0,0,151,152,0,0,0,0,0,0,0,0,0,0,0,0,0,0,0,0,151,152,0,0,0,
0,0,0,0,0,0,0,0,0,0,0,0,0,0,0,0,0,0,0,0,0,0,0,0,0,0,0,0,0,0,0,0,0,0,0,0,0,0,0,0,0,0,0,0,0,0,0,0,0,0,
0,0,0,0,0,0,0,0,0,0,0,0,0,0,0,0,0,0,0,0,0,0,0,0,0,0,0,0,0,0,0,0,0,0,0,0,0,0,0,0,0,0,0,0,0,0,0,0,0,0,
0,0,0,0,0,0,0,0,0,0,0,0,0,0,0,0,0,0,0,0,0,0,0,0,0,0,0,0,0,0,0,0,0,0,0,0,0,0,0,0,0,0,0,0,0,0,0,0,0,0,
0,0,0,0,0,0,0,0,0,0,0,0,0,0,0,0,0,0,0,0,0,0,0,0,0,0,0,0,0,0,0,0,0,0,0,0,0,0,0,0,0,0,0,0,0,0,0,0,0,0,
0,0,0,0,0,0,0,0,0,0,0,0,0,0,0,0,0,0,0,0,0,0,0,0,0,0,0,0,0,0,0,0,0,0,0,0,0,0,0,0,0,0,0,0,0,0,0,0,0,0,
0,0,0,0,0,0,0,0,0,0,0,0,0,0,0,0,0,0,0,0,0,0,0,0,0,0,0,0,0,0,0,0,0,0,0,0,0,0,0,0,0,0,0,0,0,0,0,0,0,0,
0,0,0,0,0,0,0,0,0,0,0,0,0,0,0,0,0,0,0,0,0,0,0,0,0,0,0,0,0,0,0,0,0,0,0,0,0,0,0,0,0,0,0,0,0,0,0,0,0,0,
0,0,0,0,0,0,0,0,0,0,0,0,0,0,0,0,0,0,0,0,0,0,0,0,0,0,0,0,0,0,0,0,0,0,0,0,0,0,0,0,0,0,0,0,0,0,0,0,0,0,
0,0,0,0,0,0,0,0,0,0,0,0,0,0,0,0,0,0,0,0,0,0,0,0,0,0,0,0,0,0,0,0,0,0,0,0,0,0,0,0,0,0,0,0,0,0,0,0,0,0,
0,0,0,0,0,0,0,0,0,0,0,0,0,0,0,0,0,0,0,0,0,0,0,0,0,0,0,0,0,0,0,0,0,0,0,0,0,0,0,0,0,0,0,0,0,0,0,0,0,0,
0,0,0,0,267,267,267,267,267,267,267,267,267,267,267,267,267,267,267,267,267,267,267,267,267,267,267,267,267,267,267,267,267,267,267,267,267,267,267,267,267,267,267,267,267,267,267,267,267,267,
0,0,0,0,0,0,0,0,0,0,0,0,0,0,0,0,0,0,288,288,288,288,288,288,288,288,288,288,288,288,0,0,0,0,0,0,0,0,0,0,0,0,0,0,0,0,0,0,0,288,
0,0,0,0,0,0,0,0,0,0,0,0,0,0,0,0,0,0,0,0,0,0,0,0,0,0,0,0,0,0,0,0,0,0,0,0,0,0,0,0,0,0,0,0,0,0,0,0,0,0,
0,0,0,0,0,0,0,0,0,0,0,0,0,0,0,0,0,0,0,0,0,0,0,0,0,0,0,0,0,0,0,0,0,0,0,0,0,0,0,0,0,0,0,0,0,0,0,0,0,0,
0,0,0,0,0,0,0,0,0,0,0,0,0,0,0,0,0,0,0,0,0,0,0,0,0,0,0,0,0,0,0,0,0,0,0,0,0,0,0,0,0,0,0,0,0,0,0,0,0,0,
0,0,244,245,0,0,0,0,0,0,0,0,0,0,0,0,0,0,267,267,245,245,245,246,245,246,245,246,267,267,0,0,0,0,0,0,0,0,0,0,0,0,0,0,0,0,0,0,0,245,
0,0,267,267,0,0,0,0,0,0,0,0,0,0,0,0,0,0,267,267,267,267,267,267,267,267,267,267,267,267,0,0,0,0,0,0,0,0,0,0,0,0,0,0,0,0,0,0,0,267,
0,0,267,267,0,0,0,0,0,0,0,0,0,0,0,0,0,0,0,0,0,0,0,267,267,0,0,0,0,0,0,0,0,0,0,0,0,0,0,0,0,0,0,0,0,0,0,0,0,0,
0,0,267,267,0,0,0,0,0,0,0,0,0,0,0,0,0,0,0,0,0,0,0,267,266,0,0,0,0,0,0,0,0,0,0,0,0,0,0,0,0,0,0,0,0,0,0,0,0,0,
0,0,266,267,0,0,0,0,0,0,0,0,0,0,0,0,0,0,0,0,0,0,0,267,267,0,0,0,0,0,0,0,0,0,0,0,0,0,0,0,0,0,0,0,0,0,0,0,0,0,
0,0,267,267,0,0,0,0,0,0,0,0,0,0,0,0,0,0,267,267,267,267,267,267,267,267,267,267,267,267,0,0,0,0,0,0,0,0,0,0,0,0,0,0,0,0,0,0,0,267,
0,0,267,267,0,0,0,0,0,0,0,0,0,0,0,0,0,0,267,267,288,288,288,288,288,288,288,288,267,267,0,0,0,0,0,0,0,0,0,0,0,0,0,0,0,0,0,0,0,267,
0,0,267,267,0,0,0,0,0,0,267,267,0,0,0,0,0,0,267,267,0,0,0,0,0,0,0,0,267,267,0,0,0,0,267,267,0,0,0,0,0,0,0,267,267,0,0,0,0,267,
0,0,267,267,267,267,267,267,267,267,267,267,267,267,267,267,267,267,267,267,0,0,0,0,0,0,0,0,267,267,267,267,267,267,267,267,267,267,267,267,267,267,267,267,267,267,267,267,267,267,
0,0,267,267,267,267,267,267,267,267,267,267,267,267,267,267,288,288,288,288,0,0,0,0,0,0,0,0,288,288,267,267,267,267,267,267,267,267,267,267,267,267,267,267,267,267,267,267,267,267,
0,0,0,0,0,0,0,0,0,0,0,0,0,0,0,0,0,0,0,0,0,0,0,0,0,0,0,0,0,0,0,0,0,0,0,0,0,0,0,0,0,0,0,0,0,0,0,0,0,0
</data>
 </layer>
 <layer id="15" name="Grass" width="50" height="30">
  <data encoding="csv">
0,0,0,0,0,0,0,0,0,0,0,271,271,271,271,271,271,271,271,271,271,271,271,271,271,271,271,271,271,271,271,271,271,271,271,271,271,271,271,271,271,271,271,271,271,271,271,271,271,271,
0,0,0,0,0,0,0,0,0,0,0,271,271,271,271,271,271,271,271,271,271,271,271,271,271,271,271,271,271,271,271,271,271,271,271,271,271,271,271,271,271,271,271,271,271,271,271,271,271,271,
0,0,0,0,0,0,0,0,0,271,271,271,271,271,271,271,271,271,271,271,271,271,271,271,271,271,271,271,271,271,271,271,271,271,271,271,271,271,271,271,271,271,271,271,271,271,271,271,271,271,
0,0,0,0,0,0,0,0,0,271,271,271,271,271,271,271,271,271,271,271,271,271,271,271,271,271,271,271,271,271,271,271,271,271,271,271,271,271,271,271,271,271,271,271,271,271,271,271,271,271,
0,0,0,0,0,0,0,0,0,271,271,271,271,271,271,271,271,271,271,271,271,271,271,271,271,271,271,271,271,271,271,271,271,271,271,271,271,271,271,271,271,271,271,271,271,271,271,271,271,271,
0,0,0,0,0,0,0,0,0,271,271,271,271,271,271,2147483920,271,271,271,271,271,271,271,271,271,271,271,271,271,271,271,271,1073742074,271,271,271,271,271,271,272,250,271,271,271,271,271,271,271,271,271,
0,0,0,0,0,0,0,0,0,271,271,271,271,271,271,271,271,271,271,271,271,271,271,271,271,271,271,271,271,271,271,1073742073,271,271,271,271,271,271,271,271,271,271,271,271,271,271,271,271,271,271,
0,0,0,0,0,0,0,0,0,271,271,271,249,271,271,271,271,271,355,355,355,355,355,355,355,355,355,355,355,355,271,271,271,271,272,271,271,271,1073742074,271,271,271,271,271,271,271,271,271,271,271,
0,0,0,0,0,0,0,0,0,271,271,271,1073742073,271,271,271,271,355,355,354,355,355,355,355,355,355,355,332,355,355,355,271,271,271,271,250,271,271,271,271,271,271,271,271,271,271,271,271,271,271,
0,0,0,0,0,0,0,0,0,0,0,0,0,0,0,0,0,0,355,355,355,355,355,354,355,355,355,355,355,355,0,0,0,0,0,0,0,0,0,0,0,0,0,0,0,0,0,0,0,271,
0,0,0,0,271,0,0,0,0,0,0,0,0,0,0,0,0,0,355,355,355,355,355,333,355,355,355,355,355,355,0,0,0,0,0,0,0,0,0,0,0,0,0,0,0,0,0,0,0,271,
0,0,0,0,0,0,0,0,0,0,0,0,0,0,0,0,0,0,271,271,271,355,355,355,355,355,355,271,271,271,0,0,0,0,0,0,0,0,0,0,0,0,0,0,0,0,0,0,0,271,
0,0,0,0,271,271,271,271,271,271,271,271,271,271,271,271,271,271,271,271,271,355,355,355,355,355,355,271,271,271,271,271,271,271,271,271,271,271,271,271,271,271,271,271,271,271,271,271,271,271,
0,0,0,0,271,271,271,271,271,271,271,271,271,271,271,271,271,271,355,355,355,355,355,355,355,355,355,355,355,355,271,271,271,271,271,271,271,271,271,271,271,271,271,271,271,271,271,271,271,271,
0,0,0,0,0,0,0,0,0,0,0,0,0,0,0,0,0,0,0,0,0,0,0,0,0,0,0,0,0,0,0,0,0,0,0,0,0,0,0,0,0,0,0,0,0,0,0,0,0,0,
0,0,0,0,0,0,0,0,0,0,0,0,0,0,0,0,0,0,0,0,0,0,0,0,0,0,0,0,0,0,0,0,0,0,0,0,0,0,0,0,0,0,0,0,0,0,0,0,0,0,
0,0,0,0,0,0,0,0,0,0,0,0,0,0,0,0,0,0,0,0,0,0,0,0,0,0,0,0,0,0,0,0,0,0,0,0,0,0,0,0,0,0,0,0,0,0,0,0,0,0,
0,0,0,0,0,0,0,0,0,0,0,0,0,0,0,0,0,0,0,0,0,0,0,0,0,0,0,0,0,0,0,0,0,0,0,0,0,0,0,0,0,0,0,0,0,0,0,0,0,0,
0,0,0,0,0,0,0,0,0,0,0,0,0,0,0,0,0,0,0,0,0,0,0,0,0,0,0,0,0,0,0,0,0,0,0,0,0,0,0,0,0,0,0,0,0,0,0,0,0,0,
0,0,0,0,0,0,0,0,0,0,0,0,0,0,0,0,0,0,0,0,0,0,0,0,0,0,0,0,0,0,0,0,0,0,0,0,0,0,0,0,0,0,0,0,0,0,0,0,0,0,
0,0,0,0,0,0,0,0,0,0,0,0,0,0,0,0,0,0,0,0,0,0,0,0,0,0,0,0,0,0,0,0,0,0,0,0,0,0,0,0,0,0,0,0,0,0,0,0,0,0,
0,0,0,0,0,0,0,0,0,0,0,0,0,0,0,0,0,0,0,0,0,0,0,0,0,0,0,0,0,0,0,0,0,0,0,0,0,0,0,0,0,0,0,0,0,0,0,0,0,0,
0,0,0,0,0,0,0,0,0,0,0,0,0,0,0,0,0,0,0,0,0,0,0,0,0,0,0,0,0,0,0,0,0,0,0,0,0,0,0,0,0,0,0,0,0,0,0,0,0,0,
0,0,0,0,0,0,0,0,0,0,0,0,0,0,0,0,0,0,0,0,0,0,0,0,0,0,0,0,0,0,0,0,0,0,0,0,0,0,0,0,0,0,0,0,0,0,0,0,0,0,
0,0,0,0,0,0,0,0,0,0,0,0,0,0,0,0,0,0,0,0,0,0,0,0,0,0,0,0,0,0,0,0,0,0,0,0,0,0,0,0,0,0,0,0,0,0,0,0,0,0,
0,0,0,0,0,0,0,0,0,0,0,0,0,0,0,0,0,0,0,0,0,0,0,0,0,0,0,0,0,0,0,0,0,0,0,0,0,0,0,0,0,0,0,0,0,0,0,0,0,0,
0,0,0,0,271,271,272,250,0,0,0,0,0,0,271,271,272,271,0,0,0,0,0,0,0,0,0,0,0,0,271,271,249,0,0,0,0,271,272,250,271,271,0,0,0,0,271,271,271,0,
0,0,0,0,0,0,0,0,0,0,0,0,0,0,0,0,0,0,0,0,0,0,0,0,0,0,0,0,0,0,0,0,0,0,0,0,0,0,0,0,0,0,0,0,0,0,0,0,0,0,
0,0,0,0,0,0,0,0,0,0,0,0,0,0,0,0,0,0,0,0,0,0,0,0,0,0,0,0,0,0,0,0,0,0,0,0,0,0,0,0,0,0,0,0,0,0,0,0,0,0,
0,0,0,0,0,0,0,0,0,0,0,0,0,0,0,0,0,0,0,0,0,0,0,0,0,0,0,0,0,0,0,0,0,0,0,0,0,0,0,0,0,0,0,0,0,0,0,0,0,0
</data>
 </layer>
 <layer id="13" name="Building" width="50" height="30">
  <data encoding="csv">
0,0,0,0,0,0,0,0,0,0,0,2147483991,0,0,0,0,0,0,0,0,0,0,0,0,0,0,0,0,0,0,0,0,0,0,0,0,0,0,0,0,0,0,0,0,0,0,0,0,0,0,
0,0,0,0,0,0,0,0,0,0,0,2147483991,0,0,0,0,0,0,0,0,0,0,0,0,0,0,0,0,0,0,0,0,0,0,0,0,0,0,0,0,0,0,0,0,0,0,0,0,0,0,
0,0,0,0,0,0,0,0,0,0,0,0,0,0,0,0,0,0,0,0,0,0,0,0,0,0,0,0,0,0,0,0,0,0,0,0,0,0,0,0,0,0,0,0,0,0,0,0,0,0,
0,0,0,0,0,0,0,0,0,0,0,0,0,0,0,0,0,0,0,0,0,0,0,0,0,0,0,0,0,0,0,0,0,0,0,0,0,0,0,0,0,0,0,0,0,0,0,0,0,0,
0,0,0,0,0,0,0,0,0,0,0,0,0,0,0,0,0,0,0,0,0,0,0,0,0,0,0,0,0,0,0,0,0,0,0,0,0,0,0,0,0,0,0,0,0,0,0,0,0,0,
0,0,0,0,0,0,0,0,0,0,0,0,0,0,0,0,0,0,0,0,0,0,0,0,0,0,0,0,0,0,0,0,0,0,0,0,0,0,0,0,0,0,0,0,0,0,0,0,0,0,
0,0,0,0,0,0,0,0,0,0,0,0,0,0,0,0,0,0,0,0,0,0,0,0,0,0,0,0,0,0,0,0,0,0,0,0,0,0,0,49,51,51,51,51,51,51,51,51,52,0,
0,0,0,0,0,0,0,0,0,0,0,0,0,0,0,0,0,0,0,0,0,0,0,0,0,0,0,0,0,0,0,0,0,0,0,0,0,0,0,71,95,95,73,95,95,95,95,95,96,0,
0,0,0,0,0,0,0,0,0,0,0,0,0,0,0,0,0,0,0,0,0,0,0,0,0,0,0,0,0,0,0,0,0,0,0,0,0,0,0,71,95,95,95,95,95,95,95,95,96,0,
0,0,0,0,49,50,50,50,50,50,50,50,50,50,50,50,50,52,0,0,0,0,0,0,0,0,0,0,0,0,49,51,51,51,51,51,51,51,51,68,95,95,72,95,94,95,95,95,96,0,
0,0,0,0,71,95,95,95,95,95,95,95,94,72,95,95,95,96,1073742118,0,0,0,0,0,0,0,0,0,0,0,71,95,95,95,95,95,95,95,95,95,95,95,72,95,95,72,94,95,96,0,
0,0,0,0,71,95,95,95,95,94,95,95,73,2147483721,95,72,95,96,0,0,0,0,0,0,0,0,0,0,0,0,71,95,95,95,72,73,95,72,94,95,95,95,95,95,72,73,95,95,96,0,
0,0,0,0,71,95,95,95,72,94,95,72,95,73,95,95,72,96,0,0,0,0,0,0,0,0,0,0,0,0,71,72,73,95,95,95,95,72,95,95,95,95,95,95,94,95,95,95,96,0,
0,0,0,0,71,95,72,73,94,94,73,95,95,95,95,95,95,96,0,0,0,0,0,0,0,0,0,0,0,0,93,95,94,95,95,95,95,95,95,95,95,95,95,95,95,95,95,95,96,0,
0,0,0,0,115,117,117,117,90,95,95,95,95,91,117,117,117,118,0,0,0,246,246,246,245,246,0,0,0,0,115,117,117,2147483739,95,95,91,117,117,117,117,117,90,95,73,91,117,117,118,0,
0,0,0,0,137,139,139,139,115,117,116,117,117,118,139,139,139,140,0,0,266,0,0,0,0,0,0,0,0,0,2147483788,139,139,115,116,117,118,139,139,139,139,139,115,117,117,118,139,139,140,0,
0,0,0,0,2147483788,139,139,139,2147483788,139,139,139,139,140,139,139,139,140,0,0,0,0,0,0,0,0,0,0,0,0,2147483788,139,139,2147483788,139,139,140,139,139,139,139,139,2147483788,139,139,140,139,139,140,0,
0,0,0,0,2147483788,139,139,139,2147483788,139,139,139,139,140,139,139,139,140,0,0,0,0,0,0,0,0,0,0,0,0,2147483788,139,139,2147483788,139,139,140,139,139,139,139,139,2147483788,139,139,140,139,139,140,0,
0,0,0,0,2147483788,139,139,139,2147483788,139,139,139,139,140,139,139,139,140,0,0,0,0,0,0,0,0,0,0,0,0,2147483788,139,139,2147483788,139,139,140,139,139,139,139,139,2147483788,139,139,140,139,139,140,0,
0,0,0,0,2147483788,139,139,139,2147483788,139,139,139,139,140,139,139,139,140,0,0,0,246,246,0,246,0,246,0,246,0,2147483788,139,139,2147483788,139,139,140,138,139,139,1073741962,139,2147483788,139,2147483808,140,139,139,140,0,
0,0,0,0,2147483788,139,139,139,2147483788,139,139,139,2147483786,140,139,139,139,140,0,0,0,0,0,0,0,0,0,0,0,0,2147483788,139,139,2147483788,139,139,140,139,139,139,139,139,2147483788,139,139,140,139,139,140,0,
0,0,0,266,2147483788,139,161,139,2147483788,2147483808,139,139,139,140,139,139,139,140,39,39,39,39,40,0,0,38,39,39,39,39,2147483788,139,139,2147483788,139,139,140,139,139,139,139,139,2147483788,139,2147483786,140,139,139,140,39,
0,0,0,0,2147483788,2147483808,139,139,2147483788,139,139,139,139,140,139,139,138,140,61,61,61,61,62,0,0,82,61,61,61,61,2147483788,139,139,2147483788,139,139,140,139,139,139,139,139,2147483788,139,139,140,139,139,140,61,
0,0,0,0,181,182,182,184,2147483788,139,139,139,139,140,182,182,182,184,83,83,83,83,84,0,0,82,83,83,83,83,203,204,204,137,139,139,140,204,204,204,204,204,2147483788,139,139,140,204,204,2147483851,83,
0,0,0,0,203,204,204,204,181,182,182,182,182,182,204,204,204,2147483851,0,0,0,0,0,0,0,0,0,0,0,0,203,204,204,181,182,182,184,204,204,204,204,204,181,182,182,184,204,204,2147483851,0,
0,0,0,0,203,204,204,204,203,204,204,204,204,206,204,204,204,206,0,0,0,0,0,0,0,0,0,0,0,0,203,204,204,203,204,204,206,204,204,204,204,204,203,204,204,206,204,204,206,0,
0,0,0,0,0,0,0,0,203,204,0,0,204,2147483851,0,0,0,0,266,0,0,0,0,0,0,0,0,0,0,0,0,0,0,203,0,0,2147483851,0,0,0,0,0,203,0,0,2147483851,0,0,0,0,
0,0,0,0,0,0,0,0,0,0,0,0,0,0,0,0,0,0,0,0,0,0,0,0,0,0,0,0,266,0,0,0,0,0,0,0,0,0,0,0,0,0,0,0,0,0,0,0,0,0,
0,0,0,0,0,0,0,0,0,0,0,0,0,0,0,0,0,0,0,290,0,0,0,0,0,0,0,0,0,0,0,0,0,288,289,0,0,0,0,288,0,0,0,0,0,289,0,0,288,0,
0,0,0,0,0,0,0,0,0,0,0,0,0,0,0,0,0,0,0,0,0,0,0,0,0,0,0,0,0,0,0,0,0,0,0,0,0,0,0,0,0,0,0,0,0,0,0,0,0,0
</data>
 </layer>
 <layer id="14" name="Other" width="50" height="30">
  <data encoding="csv">
0,0,0,0,1610613075,0,0,0,0,0,0,248,0,0,2147483756,2147483755,0,0,0,0,0,0,0,0,0,0,126,0,0,0,0,0,0,0,107,108,0,0,0,0,0,0,0,0,0,0,0,0,0,0,
253,0,0,0,1610613075,0,0,0,0,2147483916,267,248,0,0,2147483778,2147483777,0,2147483756,2147483755,0,127,128,0,107,108,0,148,0,0,0,127,128,0,0,129,130,0,0,0,0,0,0,107,108,0,0,0,0,0,0,
0,0,285,0,1610613075,0,0,0,0,267,267,341,0,0,2147483800,2147483799,0,2147483778,2147483777,0,149,150,0,129,130,0,2147483776,2147483775,0,0,149,150,0,0,151,152,0,0,2147483756,2147483755,0,0,129,130,0,0,2147483756,2147483755,0,0,
211,0,0,0,1610613075,0,0,0,0,267,267,2147483991,0,127,128,0,0,2147483800,2147483799,0,0,0,0,151,152,0,2147483798,2147483797,0,0,0,126,0,0,126,126,0,0,2147483778,2147483777,0,0,151,152,213,0,2147483778,2147483777,0,0,
0,0,0,0,1610613075,0,0,0,0,266,267,2147483991,0,149,150,0,0,0,0,0,0,0,0,0,0,0,0,0,0,0,0,148,0,0,148,148,0,0,2147483800,2147483799,0,0,0,126,0,0,2147483800,2147483799,0,0,
0,0,0,0,1610613075,0,0,0,0,267,267,2147483991,0,0,0,0,0,0,0,0,0,0,0,0,0,0,0,0,0,0,0,0,0,0,0,0,0,211,0,0,0,0,0,148,0,0,0,0,0,0,
0,0,0,0,1610613075,0,0,0,0,267,267,2147483991,0,0,0,0,0,0,0,0,0,0,0,0,0,0,0,0,0,0,0,0,0,0,0,0,0,0,0,0,0,0,0,0,0,0,0,0,0,0,
1610613097,1610613097,1610613097,1610613097,1610613097,1610613097,1610613097,1610613097,1610613097,267,267,2147483991,0,0,0,0,0,0,0,0,0,0,0,0,0,0,0,0,0,0,0,0,0,0,0,0,0,0,0,0,0,0,0,0,0,0,0,0,0,0,
1610613096,1610613096,1610613096,1610613096,1610613096,1610613096,1610613096,1610613096,1610613096,266,267,2147483991,0,0,0,0,0,0,0,0,0,0,0,0,0,0,0,0,0,0,0,0,0,0,0,0,0,0,0,0,0,0,0,0,0,0,0,0,0,0,
0,0,0,278,0,0,0,0,0,0,0,0,0,0,0,0,0,0,0,0,0,0,0,0,0,0,0,0,0,0,0,0,0,0,0,0,0,0,0,0,0,0,0,0,0,0,0,0,0,0,
0,0,0,0,0,0,0,0,0,0,0,0,0,0,0,0,0,0,320,320,320,321,0,0,0,0,319,320,320,320,0,0,0,0,0,0,0,0,0,0,0,0,0,0,0,0,0,0,0,0,
2147483929,2147483928,280,281,0,0,0,0,0,0,0,0,0,0,0,0,0,0,0,0,0,343,0,0,0,0,2147483991,0,0,0,0,0,0,0,0,0,0,0,0,0,0,0,0,0,0,0,0,0,0,0,
0,0,0,0,0,0,0,0,0,0,0,0,0,0,0,0,0,0,0,0,0,343,0,0,0,0,2147483991,0,0,0,0,0,0,0,0,0,0,0,0,0,0,0,0,0,0,0,0,0,0,0,
279,279,0,279,0,0,0,0,0,0,0,0,0,0,0,0,0,0,364,364,364,365,0,0,0,0,363,364,364,364,0,0,0,0,0,0,0,0,0,0,0,0,0,0,0,0,0,0,0,364,
282,0,0,0,0,0,0,0,0,0,0,0,0,0,0,134,0,0,0,0,0,0,0,0,0,0,0,0,0,0,0,0,0,0,0,0,0,0,0,0,0,0,0,0,0,0,134,0,0,0,
0,0,0,0,0,98,0,98,0,0,0,0,0,0,98,156,98,0,0,0,0,0,0,0,0,0,0,0,0,0,0,98,0,0,0,0,0,0,98,0,98,0,0,0,0,0,156,98,0,0,
0,0,0,0,0,0,0,0,0,98,0,0,98,0,0,156,0,0,0,0,0,0,0,360,361,0,0,0,0,0,0,0,0,0,100,102,0,0,0,0,0,0,0,2147483750,102,0,156,0,0,0,
0,0,0,0,0,32,0,32,0,0,0,0,0,0,32,156,32,0,0,0,0,0,0,360,361,0,0,0,0,0,0,34,0,0,0,0,0,0,34,0,34,0,0,0,0,0,156,34,0,0,
0,0,0,0,0,54,0,54,0,32,0,0,32,0,54,156,54,0,0,0,0,0,0,360,361,0,0,0,0,0,0,56,0,0,100,102,0,0,56,0,56,0,0,2147483750,102,0,156,56,0,0,
0,0,0,0,0,0,0,0,0,54,0,0,54,0,0,156,0,0,0,0,0,0,0,0,0,0,0,0,0,0,0,0,0,0,0,0,0,0,0,0,0,0,0,0,0,0,156,0,0,0,
0,0,0,0,0,32,0,32,0,0,0,0,0,0,32,156,32,0,0,0,0,0,0,0,0,0,0,0,0,0,0,34,0,0,100,102,0,0,34,0,34,0,0,2147483750,2147483748,0,156,34,0,0,
0,0,0,0,0,54,0,54,0,32,0,0,32,0,54,156,54,0,0,0,0,0,0,0,0,0,0,0,0,0,0,56,0,0,0,0,0,0,56,0,56,0,0,0,0,0,156,56,0,0,
0,0,0,0,0,0,0,0,0,54,0,0,54,0,0,156,0,0,0,0,0,0,0,0,0,0,0,0,0,0,0,0,0,0,100,102,140,0,0,0,0,0,0,2147483750,2147483748,0,156,0,0,0,
0,0,0,0,0,0,0,0,0,24,25,25,26,0,0,178,0,0,0,0,0,0,0,0,0,0,0,0,0,0,0,0,0,0,0,0,0,0,0,0,0,0,0,0,0,0,178,0,0,0,
0,0,0,0,0,0,0,0,0,0,0,0,0,0,0,178,0,0,0,0,0,0,0,0,0,0,0,0,0,0,0,0,0,0,0,0,0,2147483756,2147483755,0,107,108,0,0,0,0,178,0,0,0,
0,0,0,0,127,128,0,0,0,0,142,143,0,0,0,200,127,128,0,0,0,0,0,0,0,0,0,0,0,0,0,2147483774,0,0,145,146,0,2147483778,2147483777,0,129,130,0,145,146,0,200,126,0,0,
0,0,0,344,149,150,0,0,0,0,164,165,0,0,0,0,149,150,346,0,0,0,0,0,0,0,0,0,0,344,0,2147483796,0,0,167,168,0,2147483800,2147483799,0,151,152,0,167,168,0,0,148,0,346,
0,0,0,0,367,367,367,367,0,0,0,0,0,0,367,367,367,367,0,0,0,0,0,0,0,0,0,0,0,0,367,367,367,0,0,0,0,367,367,367,367,367,0,0,0,0,367,367,367,0,
0,0,0,0,0,0,0,0,0,0,0,0,0,0,0,0,0,0,0,0,0,0,0,0,0,0,0,0,0,0,0,0,0,0,0,0,0,0,0,0,0,0,0,0,0,0,0,0,0,0,
0,0,0,0,0,0,0,360,361,0,0,0,0,0,0,0,0,0,0,0,0,0,0,0,0,0,0,0,0,0,0,0,0,0,0,0,0,0,360,361,0,0,0,0,0,0,0,0,0,0
</data>
 </layer>
 <layer id="16" name="Decorations" width="50" height="30">
  <data encoding="csv">
0,0,0,0,0,0,0,0,0,0,0,0,0,0,0,0,0,0,0,0,0,0,0,0,0,0,0,0,0,0,0,0,0,0,0,0,0,0,0,0,0,0,0,0,0,0,0,0,0,0,
0,0,0,0,0,0,0,0,0,0,0,0,0,0,0,0,0,0,0,0,0,0,0,0,0,0,0,0,0,0,0,0,0,0,0,0,0,0,0,0,0,0,0,0,0,0,0,0,0,0,
0,0,0,0,0,276,0,0,2147483902,0,0,1610612963,0,0,0,0,0,0,0,0,0,0,0,0,0,0,0,0,0,0,0,0,0,0,0,0,0,0,0,0,0,0,0,0,0,0,0,0,0,0,
0,0,0,0,0,0,0,0,0,0,210,2147483899,0,0,0,0,0,0,0,0,0,0,0,0,0,0,0,0,0,0,0,0,0,0,0,0,0,0,0,0,0,0,0,0,0,0,0,0,0,0,
0,0,0,0,0,0,0,0,0,0,0,2147483921,0,0,0,0,0,0,0,0,0,0,107,108,2147483756,2147483755,0,0,0,2147483756,2147483755,0,0,0,0,0,0,0,0,0,0,0,0,0,0,0,0,0,0,0,
239,240,241,236,237,238,239,240,241,231,0,1610612964,127,128,0,0,0,0,126,127,128,0,129,130,2147483778,2147483777,0,2147483774,0,2147483778,2147483777,0,0,126,0,107,108,0,0,0,0,0,0,0,0,0,0,0,0,0,
261,262,263,258,259,260,261,262,263,0,0,1610612963,149,150,2147483756,2147483755,0,0,148,149,150,0,151,152,2147483800,2147483799,0,2147483796,193,2147483800,2147483799,0,0,148,0,129,130,0,0,0,0,0,0,0,0,0,0,0,0,0,
0,0,0,0,0,0,0,0,0,0,0,248,0,126,2147483778,2147483777,0,0,293,293,1073742051,1073742052,2684354833,2684354811,293,1610612984,1610613006,293,293,293,0,0,126,0,0,151,152,0,0,0,0,0,0,0,0,0,0,0,0,0,
0,0,0,0,0,0,0,0,0,0,0,270,0,148,2147483800,2147483799,0,295,0,0,0,0,0,0,0,0,0,0,0,0,270,0,148,0,0,0,0,0,0,0,0,0,0,0,0,253,210,0,0,0,
0,0,0,0,0,0,0,0,0,0,0,0,0,0,0,0,0,0,0,0,0,0,0,0,0,0,0,0,0,0,0,0,0,0,0,0,0,0,0,0,0,0,0,0,0,0,0,0,0,0,
0,0,0,0,0,2147483923,0,0,0,0,0,0,0,0,0,0,0,0,0,227,228,229,0,0,0,0,226,227,228,227,0,0,0,0,0,0,0,0,0,0,0,0,0,0,0,0,0,0,0,0,
0,0,0,0,0,0,2147483880,0,0,0,0,0,0,0,284,0,0,0,126,0,0,273,0,0,0,0,248,0,0,0,0,0,0,0,0,0,0,0,0,0,285,0,0,0,0,0,0,0,0,0,
0,0,0,0,0,0,0,0,0,0,0,0,0,0,0,0,0,0,148,0,0,251,0,0,0,0,270,0,0,0,0,0,0,0,0,0,0,0,0,283,0,0,0,0,0,0,0,0,0,0,
0,0,0,0,0,0,0,0,0,0,0,0,0,0,0,0,0,0,293,294,2147483942,295,0,0,0,0,292,293,1610612984,1610613006,0,0,0,0,0,0,0,0,0,0,0,0,0,0,0,0,0,0,0,0,
0,0,282,0,0,0,0,0,0,0,0,0,0,0,0,0,0,0,0,0,0,0,0,0,0,0,0,0,0,0,0,0,0,0,0,0,0,0,0,0,0,0,0,0,0,0,0,0,0,0,
0,0,0,0,0,0,0,0,0,0,0,0,0,0,0,0,0,0,0,0,0,0,0,0,0,0,0,0,0,0,0,0,0,0,0,0,0,0,0,0,0,0,0,0,0,0,0,0,0,0,
0,0,0,0,0,0,2147483786,0,0,0,0,0,0,0,0,0,0,0,0,0,0,0,0,0,0,0,0,0,0,0,0,2147483786,0,0,0,0,0,2147483808,0,0,0,160,0,0,0,0,0,0,0,0,
0,0,0,0,0,0,187,0,0,0,0,2147483787,0,0,0,0,0,0,0,0,0,0,0,0,0,0,0,0,0,0,0,0,0,0,0,0,0,0,0,139,0,0,0,0,0,0,0,0,0,0,
0,0,0,0,0,0,209,0,0,0,0,0,0,0,0,0,0,0,0,0,0,0,0,0,0,0,0,0,0,0,0,187,0,0,0,0,0,0,0,0,0,0,0,0,0,0,0,187,0,0,
0,0,0,0,0,2147483787,2147483809,0,0,0,0,2147483808,0,0,0,0,0,0,0,0,0,0,0,0,0,0,0,0,0,0,0,209,0,0,0,0,0,0,0,160,0,2147483809,0,0,0,0,0,209,0,275,
0,0,0,0,0,0,0,0,0,2147483787,0,0,0,0,0,0,0,0,0,0,0,0,0,0,0,0,0,0,0,0,0,0,0,0,0,0,0,0,0,0,0,0,0,0,0,0,0,0,0,211,
0,0,0,0,0,0,0,0,0,0,0,187,0,0,0,0,0,0,0,0,0,0,0,0,0,0,0,0,0,0,0,0,0,0,0,0,0,0,0,0,0,0,0,0,0,0,0,187,0,0,
0,0,0,0,0,0,0,0,0,0,0,209,0,0,0,0,0,0,0,0,0,0,0,0,0,0,0,0,0,0,0,0,0,0,0,0,140,0,0,0,0,0,0,0,0,0,0,209,0,0,
0,0,0,0,0,0,0,0,0,0,0,0,0,0,0,0,0,0,0,0,0,0,0,0,0,0,0,0,0,0,181,182,183,0,0,0,0,181,182,182,182,182,0,0,0,0,0,183,182,0,
0,0,0,276,0,0,205,0,0,0,0,0,0,0,0,0,0,0,217,0,0,0,0,0,0,0,0,0,0,0,0,0,0,0,0,0,0,0,0,0,0,0,0,0,0,0,0,0,0,254,
0,0,0,0,0,0,0,0,0,0,0,0,0,0,0,0,0,0,0,0,0,0,0,0,0,0,0,0,0,0,0,0,0,0,0,0,0,0,0,0,0,0,0,0,0,0,0,0,0,216,
0,0,0,0,0,0,0,0,0,0,0,0,0,0,0,0,0,0,0,0,0,0,0,0,0,0,0,0,0,0,0,0,0,0,0,0,0,0,0,0,0,0,0,0,0,0,0,0,0,0,
0,0,0,0,0,0,0,0,0,0,0,0,0,0,0,0,0,0,0,0,0,0,0,0,0,0,0,0,0,0,0,0,0,0,0,0,0,0,0,0,0,0,0,0,0,0,0,0,0,0,
0,0,0,0,0,0,0,0,0,0,0,0,277,0,0,0,0,0,0,0,0,0,0,0,0,0,0,0,0,253,233,234,235,0,0,0,0,0,0,0,0,277,0,0,0,0,0,0,0,0,
0,0,0,0,282,0,0,0,0,0,0,278,0,0,0,0,0,0,0,0,0,0,0,0,0,0,0,0,0,232,255,256,257,216,0,0,278,0,0,0,0,0,0,0,0,0,0,0,0,0
</data>
 </layer>
 <layer id="18" name="Decorations 2" width="50" height="30">
  <data encoding="csv">
0,0,0,0,0,0,0,0,0,0,0,0,0,0,0,0,0,0,0,0,0,0,0,0,0,0,0,0,0,0,0,0,0,0,0,0,0,0,0,0,0,0,0,0,0,0,0,0,0,0,
0,0,0,0,0,0,0,0,0,0,0,0,0,0,0,0,0,0,0,0,0,0,0,0,0,0,0,0,0,0,0,0,0,0,0,0,0,0,0,0,0,0,0,0,0,0,0,0,0,0,
0,0,0,0,0,0,0,0,0,0,0,0,0,0,0,0,0,0,0,0,0,0,0,0,0,0,0,0,0,0,0,0,0,0,0,0,0,0,0,0,0,0,0,0,0,0,0,0,0,0,
0,0,0,0,0,0,0,0,0,0,0,0,0,0,0,0,0,0,0,0,0,0,0,0,0,0,0,0,0,0,0,0,0,0,0,0,0,0,0,0,0,0,0,0,0,0,0,0,0,0,
0,0,0,0,0,0,0,0,0,0,0,0,0,0,0,0,0,0,0,0,0,0,0,0,0,0,0,0,0,0,0,0,0,0,0,0,0,0,0,0,0,0,0,0,0,0,0,0,0,0,
0,0,0,0,0,0,0,0,0,0,0,0,0,0,0,0,107,108,0,0,0,0,0,0,0,0,0,0,0,0,0,0,0,0,0,0,0,0,0,0,0,0,0,0,0,0,0,0,0,0,
0,0,0,0,0,0,0,0,0,0,0,0,0,0,0,0,129,130,0,192,193,0,0,0,0,0,0,192,193,0,0,0,0,0,0,0,0,0,0,0,0,0,0,0,0,0,0,0,0,0,
0,0,0,0,0,0,0,0,0,0,0,0,0,0,0,0,151,152,0,214,215,0,0,0,0,0,0,214,215,0,0,0,0,0,0,0,0,0,0,0,0,0,0,0,0,0,0,0,0,0,
0,0,0,0,0,0,0,0,0,0,0,0,0,0,0,0,0,0,0,0,0,0,0,0,0,0,0,0,0,0,0,0,0,0,0,0,0,0,0,0,0,0,0,0,0,0,0,0,0,0,
0,0,0,0,0,0,0,0,0,0,0,0,0,0,0,0,0,0,0,0,0,0,0,0,0,0,0,0,107,108,0,0,0,0,0,0,0,0,0,0,0,0,0,0,0,0,0,0,0,0,
0,0,0,0,0,0,0,0,0,0,0,0,0,0,0,0,0,0,0,107,108,0,0,0,0,0,0,0,129,130,0,0,0,0,0,0,0,0,0,0,0,0,0,0,0,0,0,0,0,0,
0,0,0,0,0,0,0,0,0,0,0,0,0,0,0,0,0,0,0,129,130,0,0,0,0,0,0,126,151,152,0,0,0,0,0,0,0,0,0,0,0,0,0,0,0,0,0,0,0,0,
0,0,0,0,0,0,0,0,0,0,0,0,0,0,0,0,0,0,0,151,152,0,0,0,0,0,0,148,0,0,0,0,0,0,0,0,0,0,0,0,0,0,0,0,0,0,0,0,0,0,
0,0,0,0,0,0,0,0,0,0,0,0,0,0,0,0,0,0,0,0,0,0,0,0,0,0,0,0,0,0,0,0,0,0,0,0,0,0,0,0,0,0,0,0,0,0,0,0,0,0,
0,0,0,0,0,0,0,0,0,0,0,0,0,0,0,0,0,0,0,0,0,0,0,0,0,0,0,0,0,0,0,0,0,0,0,0,0,0,0,0,0,0,0,0,0,0,0,0,0,0,
0,0,0,0,0,0,0,0,0,0,0,0,0,0,0,0,0,0,0,0,0,0,0,0,0,0,0,0,0,0,0,0,0,0,0,0,0,0,0,0,0,0,0,0,0,0,0,0,0,0,
0,0,0,0,0,0,0,0,0,0,0,0,0,0,0,0,0,0,0,0,0,0,0,0,0,0,0,0,0,0,0,0,0,0,0,0,0,0,0,0,0,0,0,0,0,0,0,0,0,0,
0,0,0,0,0,0,0,0,0,0,0,0,0,0,0,0,0,0,0,0,0,0,0,0,0,0,0,0,0,0,0,0,0,0,0,0,0,0,0,0,0,0,0,0,0,0,0,0,0,0,
0,0,0,0,0,0,0,0,0,0,0,0,0,0,0,0,0,0,0,0,0,0,0,0,0,0,0,0,0,0,0,0,0,0,0,0,0,0,0,0,0,0,0,0,0,0,0,0,0,0,
0,0,0,0,0,0,0,0,0,0,0,0,0,0,0,0,0,0,0,0,0,0,0,0,0,0,0,0,0,0,0,0,0,0,0,0,0,0,0,0,0,0,0,0,0,0,0,0,0,0,
0,0,0,0,0,0,0,0,0,0,0,0,0,0,0,0,0,0,0,0,0,0,0,0,0,0,0,0,0,0,0,0,0,0,0,0,0,0,0,0,0,0,0,0,0,0,0,0,0,0,
0,0,0,0,0,0,0,0,0,0,0,0,0,0,0,0,0,0,0,0,0,0,0,0,0,0,0,0,0,0,0,0,0,0,0,0,0,0,0,0,0,0,0,0,0,0,0,0,0,0,
0,0,0,0,0,0,0,0,0,0,0,0,0,0,0,0,0,0,0,0,0,0,0,0,0,0,0,0,0,0,0,0,0,0,0,0,0,0,0,0,0,0,0,0,0,0,0,0,0,0,
0,0,0,0,0,0,0,0,0,0,0,0,0,0,0,0,0,0,0,0,0,0,0,0,0,0,0,0,0,0,0,0,0,0,0,0,0,0,0,0,0,0,0,0,0,0,0,0,0,0,
0,0,0,0,0,0,0,0,0,0,0,0,0,0,0,0,0,0,0,0,0,0,0,0,0,0,0,0,0,0,0,0,0,0,0,0,0,0,0,0,0,0,0,0,0,0,0,0,0,0,
0,0,0,0,0,0,0,0,0,0,0,0,0,0,0,0,0,0,0,0,0,0,0,0,0,0,0,0,0,0,0,0,0,0,0,0,0,0,0,0,0,0,0,0,0,0,0,0,0,0,
0,0,0,0,0,0,0,0,0,0,0,0,0,0,0,0,0,0,0,0,0,0,0,0,0,0,0,0,0,0,0,0,0,0,0,0,0,0,0,0,0,0,0,0,0,0,0,0,0,0,
0,0,0,0,0,0,0,0,0,0,0,0,0,0,0,0,0,0,0,0,0,0,0,0,0,0,0,0,0,0,0,0,0,0,0,0,0,0,0,0,0,0,0,0,0,0,0,0,0,0,
0,0,0,0,0,0,0,0,0,0,0,0,0,0,0,0,0,0,0,0,0,0,0,0,0,0,0,0,0,0,0,0,0,0,0,0,0,0,0,0,0,0,0,0,0,0,0,0,0,0,
0,0,0,0,0,0,0,0,0,0,0,0,0,0,0,0,0,0,0,0,0,0,0,0,0,0,0,0,0,0,0,0,0,0,0,0,0,0,0,0,0,0,0,0,0,0,0,0,0,0
</data>
 </layer>
 <layer id="4" name="Слой тайлов 1" width="50" height="30">
  <data encoding="csv">
0,0,0,0,0,0,0,0,0,0,0,0,0,0,0,0,0,0,0,0,0,0,0,0,0,0,0,0,0,0,0,0,0,0,0,0,0,0,0,0,0,0,0,0,0,0,0,0,0,0,
0,0,0,0,0,0,0,0,0,0,0,0,0,0,0,0,0,0,0,0,0,0,0,0,0,0,0,0,0,0,0,0,0,0,0,0,0,0,0,0,0,0,0,0,0,0,0,0,0,0,
0,0,0,0,0,0,0,0,0,0,0,0,0,0,0,0,0,0,0,0,0,0,0,0,0,0,0,0,0,0,0,0,0,0,0,0,0,0,0,0,0,0,0,0,0,0,0,0,0,0,
0,0,0,0,0,0,0,0,0,0,0,0,0,0,0,0,0,0,0,0,0,0,0,0,0,0,0,0,0,0,0,0,0,0,0,0,0,0,0,0,0,0,0,0,0,0,0,0,0,0,
0,0,0,0,0,0,0,0,0,0,0,0,0,0,0,0,0,0,0,0,0,0,0,0,0,0,0,0,0,0,0,0,0,0,0,0,0,0,0,0,0,0,0,0,0,0,0,0,0,0,
0,0,0,0,0,0,0,0,0,0,0,0,0,0,0,0,0,0,0,0,0,0,0,0,0,0,0,0,0,0,0,0,0,0,0,0,0,0,0,0,0,0,0,0,0,0,0,0,0,0,
0,0,0,0,0,0,0,0,0,0,0,0,0,0,0,0,0,0,0,0,0,0,0,0,0,0,0,0,0,0,0,0,0,0,0,0,0,0,0,0,0,0,0,0,0,0,0,0,0,0,
0,0,0,0,0,0,0,0,0,0,0,0,0,0,0,0,0,0,0,0,0,0,0,0,0,0,0,0,0,0,0,0,0,0,0,0,0,0,0,0,0,0,0,0,0,0,0,0,0,0,
0,0,0,0,0,0,0,0,0,0,0,0,0,0,0,0,0,0,0,0,0,0,0,0,0,0,0,0,0,0,0,0,0,0,0,0,0,0,0,0,0,0,0,0,0,0,0,0,0,0,
0,0,0,0,0,0,0,0,0,0,0,0,0,0,0,0,0,0,0,0,0,0,0,0,0,0,0,0,0,0,0,0,0,0,0,0,0,0,0,0,0,0,0,0,0,0,0,0,0,0,
0,0,0,0,0,0,0,0,0,0,0,0,0,0,0,0,0,0,0,0,0,0,0,0,0,0,0,0,0,0,0,0,0,0,0,0,0,0,0,0,0,0,0,0,0,0,0,0,0,0,
0,0,0,0,0,0,0,0,0,0,0,0,0,0,0,0,0,0,0,0,0,0,0,0,0,0,0,0,0,0,0,0,0,0,0,0,0,0,0,0,0,0,0,0,0,0,0,0,0,0,
0,0,0,0,0,0,0,0,0,0,0,0,0,0,0,0,0,0,0,0,0,0,0,0,0,0,0,0,0,0,0,0,0,0,0,0,0,0,0,0,0,0,0,0,0,0,0,0,0,0,
0,0,0,0,0,0,0,0,0,0,0,0,0,0,0,0,0,0,0,0,0,0,0,0,0,0,0,0,0,0,0,0,0,0,0,0,0,0,0,0,0,0,0,0,0,0,0,0,0,0,
0,0,0,0,0,0,0,0,0,0,0,0,0,0,0,0,0,0,0,0,0,0,0,0,0,0,0,0,0,0,0,0,0,0,0,0,0,0,0,0,0,0,0,0,0,0,0,0,0,0,
0,0,0,0,0,0,0,0,0,0,0,0,0,0,0,0,0,0,0,0,0,0,0,0,0,0,0,0,0,0,0,0,0,0,0,0,0,0,0,0,0,0,0,0,0,0,0,0,0,0,
0,0,0,0,0,0,0,0,0,0,0,0,0,0,0,0,0,0,0,0,0,0,0,0,0,0,0,0,0,0,0,0,0,0,0,0,0,0,0,0,0,0,0,0,0,0,0,0,0,0,
0,0,0,0,0,0,0,0,0,0,0,0,0,0,0,0,0,0,0,0,0,0,0,0,0,0,0,0,0,0,0,0,0,0,0,0,0,0,0,0,0,0,0,0,0,0,0,0,0,0,
0,0,0,0,0,0,0,0,0,0,0,0,0,0,0,0,0,0,0,0,0,0,0,0,0,0,0,0,0,0,0,0,0,0,0,0,0,0,0,0,0,0,0,0,0,0,0,0,0,0,
0,0,0,0,0,0,0,0,0,0,0,0,0,0,0,0,0,0,0,0,0,0,0,0,0,0,0,0,0,0,0,0,0,0,0,0,0,0,0,0,0,0,0,0,0,0,0,0,0,0,
0,0,0,0,0,0,0,0,0,0,0,0,0,0,0,0,0,0,0,0,0,0,0,0,0,0,0,0,0,0,0,0,0,0,0,0,0,0,0,0,0,0,0,0,0,0,0,0,0,0,
0,0,0,0,0,0,0,0,0,0,0,0,0,0,0,0,0,0,0,0,0,0,0,0,0,0,0,0,0,0,0,0,0,0,0,0,0,0,0,0,0,0,0,0,0,0,0,0,0,0,
0,0,0,0,0,0,0,0,0,0,0,0,0,0,0,0,0,0,0,0,0,0,0,0,0,0,0,0,0,0,0,0,0,0,0,0,0,0,0,0,0,0,0,0,0,0,0,0,0,0,
0,0,0,0,0,0,0,0,0,0,0,0,0,0,0,0,0,0,0,0,0,0,0,0,0,0,0,0,0,0,0,0,0,0,0,0,0,0,0,0,0,0,0,0,0,0,0,0,0,0,
0,0,0,0,0,0,0,0,0,0,0,0,0,0,0,0,0,0,0,0,0,0,0,0,0,0,0,0,0,0,0,0,0,0,0,0,0,0,0,0,0,0,0,0,0,0,0,0,0,0,
0,0,0,0,0,0,0,0,0,0,0,0,0,0,0,0,0,0,0,0,0,0,0,0,0,0,0,0,0,0,0,0,0,0,0,0,0,0,0,0,0,0,0,0,0,0,0,0,0,0,
0,0,0,0,0,0,0,0,0,0,0,0,0,0,0,0,0,0,0,0,0,0,0,0,0,0,0,0,0,0,0,0,0,0,0,0,0,0,0,0,0,0,0,0,0,0,0,0,0,0,
0,0,0,0,0,0,0,0,0,0,0,0,0,0,0,0,0,0,0,0,0,0,0,0,0,0,0,0,0,0,0,0,0,0,0,0,0,0,0,0,0,0,0,0,0,0,0,0,0,0,
0,0,0,0,0,0,0,0,0,0,0,0,0,0,0,0,0,0,0,0,0,0,0,0,0,0,0,0,0,0,0,0,0,0,0,0,0,0,0,0,0,0,0,0,0,0,0,0,0,0,
0,0,0,0,0,0,0,0,0,0,0,0,0,0,0,0,0,0,0,0,0,0,0,0,0,0,0,0,0,0,0,0,0,0,0,0,0,0,0,0,0,0,0,0,0,0,0,0,0,0
</data>
 </layer>
</map>
